app/img/icons/f5.svg

<svg width="32" height="32" viewBox="0 0 32 32" fill="none" xmlns="http://www.w3.org/2000/svg">
<path d="M0 16C0 24.8091 7.18956 31.9994 15.9989 32H15.9998H16.0002C24.81 31.9999 32 24.8094 32 16C32 7.19006 24.8094 0 16 0C7.20131 0 0 7.18244 0 16ZM1.875 16C1.875 13.196 2.69637 10.5803 4.111 8.38062L5.89138 8.81419C6.20406 8.89237 6.4575 9.10675 6.58656 9.40231C6.7155 9.69744 6.69987 10.0297 6.54375 10.314C5.8655 11.5489 6.27325 13.1422 7.47194 13.9413L11.5227 16.6418L12.454 18.5043C12.7712 19.1386 12.6473 19.9017 12.1459 20.4032L11.5871 20.962C11.2209 21.3281 11.2209 21.9217 11.5871 22.2878L12.7057 23.4064C13.0164 23.7171 13.1874 24.1301 13.1874 24.5695C13.1874 26.4745 13.6214 28.3628 14.4415 30.0385C7.38369 29.2604 1.875 23.2618 1.875 16ZM14.1311 17.6659L13.7669 16.9375H13.9037C14.8394 16.9375 15.6806 17.4574 16.099 18.2943C16.8371 19.7704 18.3209 20.6875 19.9714 20.6875H20.6875V21.625C20.6875 22.383 20.3904 23.0938 19.8509 23.6264C18.1205 25.335 16.8264 27.0425 15.9342 28.8008C15.3699 27.4943 15.0625 26.0121 15.0625 24.5696C15.0625 23.6294 14.6964 22.7456 14.0316 22.0807L13.5737 21.6229C14.561 20.5503 14.7878 18.9791 14.1311 17.6659ZM17.4099 30.0548C18.2092 28.3369 19.4481 26.6591 21.1682 24.9607C22.0674 24.073 22.5625 22.8884 22.5625 21.625V19.75C22.5625 19.2323 22.1427 18.8125 21.625 18.8125H19.9713C19.0356 18.8125 18.1944 18.2926 17.776 17.4557C17.0379 15.9796 15.5541 15.0625 13.9037 15.0625H12.8294L12.5444 14.4923C12.0392 13.482 12.4973 12.2527 13.5873 11.6936C14.4834 11.2341 15.0625 10.2286 15.0625 9.13206V8.5C15.0625 7.98306 15.4831 7.5625 16 7.5625H17.1312C19.0594 7.5625 20.4121 5.66075 19.7956 3.84931L19.2644 2.2565C21.3668 2.75581 23.2885 3.72625 24.9118 5.04987L24.6256 5.90856C24.5798 6.046 24.5015 6.17269 24.3991 6.27506L23.3862 7.28794C22.8551 7.81913 22.5625 8.52544 22.5625 9.27669V10.375C22.5625 11.9258 23.8242 13.1875 25.375 13.1875C25.8919 13.1875 26.3125 13.6081 26.3125 14.125V15.5574C26.3125 15.7021 26.2782 15.8471 26.2136 15.9766L25.8932 16.6173C25.4542 17.4955 25.5002 18.5184 26.0164 19.3536C26.5326 20.1889 27.4269 20.6869 28.4088 20.6869H29.3244C27.5369 25.7531 22.9377 29.5044 17.4099 30.0548ZM30.125 16C30.125 16.9628 30.0278 17.9033 29.8434 18.8125H28.4088C27.9371 18.8125 27.6939 18.5016 27.6113 18.3679C27.5287 18.2342 27.3593 17.8777 27.5702 17.4557L27.8906 16.8151C28.0848 16.4266 28.1875 15.9917 28.1875 15.5574V14.125C28.1875 12.5742 26.9258 11.3125 25.375 11.3125C24.8581 11.3125 24.4375 10.8919 24.4375 10.375V9.27662C24.4375 9.02619 24.535 8.79075 24.7121 8.61375L25.7249 7.60094C26.0321 7.29387 26.267 6.91375 26.4044 6.50156L26.4153 6.469C28.7179 8.98306 30.125 12.3302 30.125 16ZM16 1.875C16.3964 1.875 16.7889 1.89225 17.1772 1.92444L18.0187 4.44788C18.226 5.05688 17.7743 5.6875 17.1312 5.6875H16C14.4492 5.6875 13.1875 6.94919 13.1875 8.49994V9.132C13.1875 9.5265 13.0043 9.88544 12.7316 10.0253C11.2687 10.7756 10.4362 12.2086 10.4603 13.6801L8.51206 12.3813C8.11625 12.1174 7.97356 11.6058 8.18731 11.2166C8.6255 10.4187 8.66831 9.48394 8.30488 8.65181C7.94125 7.81925 7.22731 7.21544 6.34062 6.99381L5.33469 6.74881C7.92644 3.76488 11.7466 1.875 16 1.875Z" fill="#FA4616"/>
</svg>

<svg width="32" height="32" fill="none" xmlns="http://www.w3.org/2000/svg"><path d="M0 16c0 8.81 7.19 16 15.999 16H16c8.81 0 16-7.19 16-16 0-8.81-7.19-16-16-16C7.201 0 0 7.182 0 16zm1.875 0c0-2.804.821-5.42 2.236-7.62l1.78.434a1.028 1.028 0 01.653 1.5c-.678 1.235-.27 2.828.928 3.627l4.05 2.7.932 1.863a1.643 1.643 0 01-.308 1.9l-.559.558a.937.937 0 000 1.326l1.119 1.118c.31.311.481.724.481 1.164 0 1.904.434 3.793 1.255 5.468C7.383 29.26 1.874 23.262 1.874 16zm12.256 1.666l-.364-.729h.137c.935 0 1.777.52 2.195 1.357a4.306 4.306 0 003.872 2.393h.716v.938c0 .758-.297 1.469-.836 2.001-1.73 1.709-3.025 3.416-3.917 5.175a10.832 10.832 0 01-.871-4.231c0-.94-.367-1.824-1.031-2.49l-.458-.457a3.515 3.515 0 00.557-3.957zm3.279 12.389c.8-1.718 2.038-3.396 3.758-5.094a4.654 4.654 0 001.395-3.336V19.75a.938.938 0 00-.938-.938h-1.654c-.935 0-1.777-.52-2.195-1.356a4.306 4.306 0 00-3.872-2.393h-1.075l-.285-.57c-.505-1.011-.047-2.24 1.043-2.8.896-.459 1.476-1.464 1.476-2.56V8.5c0-.517.42-.938.937-.938h1.131c1.928 0 3.281-1.901 2.665-3.713l-.532-1.593c2.103.5 4.024 1.47 5.648 2.794l-.286.859a.942.942 0 01-.227.366l-1.013 1.013a2.794 2.794 0 00-.823 1.989v1.098a2.816 2.816 0 002.812 2.813c.517 0 .938.42.938.937v1.432c0 .145-.035.29-.1.42l-.32.64a2.795 2.795 0 00.123 2.737 2.794 2.794 0 002.393 1.333h.915c-1.787 5.066-6.386 8.817-11.914 9.368zM30.125 16c0 .963-.097 1.903-.282 2.813H28.41a.924.924 0 01-.798-.445.925.925 0 01-.04-.912l.32-.64c.194-.39.297-.824.297-1.259v-1.432a2.816 2.816 0 00-2.813-2.813.939.939 0 01-.938-.937V9.277c0-.25.098-.486.275-.663L25.725 7.6c.307-.307.542-.687.68-1.1l.01-.032A14.07 14.07 0 0130.125 16zM16 1.875c.396 0 .789.017 1.177.05l.842 2.523a.937.937 0 01-.888 1.24H16A2.816 2.816 0 0013.187 8.5v.632c0 .395-.183.753-.455.893-1.463.75-2.296 2.184-2.272 3.655l-1.948-1.299c-.396-.264-.538-.775-.325-1.164a2.89 2.89 0 00.118-2.565A2.89 2.89 0 006.34 6.994l-1.006-.245A14.097 14.097 0 0116 1.875z" fill="#FA4616"/></svg>
